X: 57
U:~=!turn!
M:C|
L:1/8
K:C
{AB}(cd)ed {AB}cA{/^F}Gc | .A.c.G.c .F.c.E.c | {/^c}dB=cE {FE}D2 {/B,}C || f | efga gecg | afdg ed{AB}cG |


